src/next/cmd/lc_exporttoepub.svg

<svg enable-background="new 0 0 128 128" height="24" viewBox="0 0 24 24" width="24" xmlns="http://www.w3.org/2000/svg" xmlns:xlink="http://www.w3.org/1999/xlink"><linearGradient id="a" gradientUnits="userSpaceOnUse" x1="27.09636585924" x2="134.82069985094" y1="72.67818475398" y2="134.07145335091"><stop offset="0" stop-color="#a4ca51"/><stop offset=".5" stop-color="#93c131"/><stop offset="1" stop-color="#8ebd27"/></linearGradient><filter id="b" color-interpolation-filters="sRGB" height="1.109627" width="1.126768" x="-.063384" y="-.054813"><feGaussianBlur stdDeviation="2.792426"/></filter><linearGradient id="c" gradientUnits="userSpaceOnUse" x1="88.591797" x2="71.262016" y1="96.592697" y2="79.262917"><stop offset="0" stop-color="#fff"/><stop offset="1" stop-color="#555753"/></linearGradient><linearGradient id="d" gradientUnits="userSpaceOnUse" x1="85.219681" x2="61.336319" y1="93.219681" y2="69.336319"><stop offset="0"/><stop offset="1" stop-color="#393b38"/></linearGradient><linearGradient id="e" gradientUnits="userSpaceOnUse" x1="96" x2="88.000198" y1="104" y2="96.000198"><stop offset="0" stop-color="#888a85"/><stop offset=".0072" stop-color="#8c8e89"/><stop offset=".0673" stop-color="#abaca9"/><stop offset=".1347" stop-color="#c5c6c4"/><stop offset=".2115" stop-color="#dbdbda"/><stop offset=".3012" stop-color="#ebebeb"/><stop offset=".4122" stop-color="#f7f7f6"/><stop offset=".5679" stop-color="#fdfdfd"/><stop offset="1" stop-color="#fff"/></linearGradient><filter id="f"><feGaussianBlur stdDeviation=".50063244"/></filter><filter id="g"><feGaussianBlur stdDeviation=".40750996"/></filter><filter id="h"><feGaussianBlur stdDeviation=".4901192"/></filter><filter id="i"><feGaussianBlur stdDeviation=".90565481"/></filter><g transform="matrix(.20454545625 0 0 .20454545625 -1.57728703395 -1.38050544712)"><path d="m18.193185 4.6471269v122.2660431h66.498509c.53 0 1.039-.211 1.414-.586l37.235026-37.232607c.375-.375.586-.884.586-1.414l-.0228-83.0334361z" fill="#3e5300" filter="url(#b)" opacity=".68" transform="matrix(.92495507 0 0 .91966966 .661074 7.364178)"/><path d="m29.750812 15.546194-.000011 102.331376 53.830924-.0001c.53 0 1.039-.211 1.414-.586l31.498275-28.780314c.375-.375.586-.884.586-1.414l.0812-71.550962z" filter="url(#f)" opacity=".89589" transform="matrix(1.0090419 0 0 1.003276 -7.641977 .929762)"/><path d="m22.377839 16.526886v102.666604h54.36722c.513401 0 1.006458-.20439 1.369714-.56765l31.814227-28.804429c.36326-.363255.56764-.856313.56764-1.369714l.0819-71.924811z" fill="#cde2a2"/><path d="m27.893008 21.458161c-.43895 0-.796642.358823-.796642.799162l.270505 91.063947c0 .44114.357693.79917.796643.79917h53.555576c.209516 0 .415049-.0847.563224-.23416l23.127166-22.873763c.14897-.149444.23341-.354826.23341-.565007l-.16806-68.171766c0-.440338-.35689-.799162-.79663-.799162l-38.300353-.06078-38.484839.04236z" fill="url(#a)" stroke-width=".840278"/><path d="m66.377394 87.626506-21.40101-22.00089 21.40101-21.997826 7.134251 7.332269-14.268502 14.665557 7.133822 7.333582 21.401017-21.997754-18.642785-19.163877c-1.522333-1.566154-3.991544-1.566154-5.515166 0l-30.152619 30.995413c-1.522324 1.564841-1.522324 4.103057 0 5.669285l30.153056 30.994466c1.523623 1.566149 3.992835 1.566149 5.515159 0l30.153056-30.994466c1.522317-1.566228 1.522317-4.104444 0-5.669285l-4.377325-4.498391z" fill="#fff" stroke-width="6.904992"/></g><g transform="matrix(.22663965871 0 0 .22663965871 -4.18417469204 -3.42936978237)"><path d="m111.52523 88.365747c.26305-.236238-24.821717-1.141063-29.856717-1.141063-1.654 0-3 1.346-3 3 0 5.035 1.211722 26.561276 1.474766 26.325036z" fill="url(#c)" filter="url(#g)" opacity=".750685"/><path d="m111.52523 88.365747c.39457-.354357-20.412717-.141063-29.856717-.141063-1.103 0-2 .897-2 2 0 9.444.0802 26.679386.474766 26.325036z" filter="url(#i)" opacity=".2"/><path d="m111.52523 88.365747c.25147-.225842-20.049717.858937-29.856717.858937-.553 0-1 .447-1 1 0 9.806996-.776705 26.550876-.525234 26.325036z" fill="url(#d)" filter="url(#h)" opacity=".1"/><path d="m81.278898 116.44678 30.059452-26.861477-29.948218.444937z" fill="url(#e)"/></g></svg>

<?xml version="1.0" encoding="UTF-8" standalone="no"?>
<svg
   xmlns:dc="http://purl.org/dc/elements/1.1/"
   xmlns:cc="http://creativecommons.org/ns#"
   xmlns:rdf="http://www.w3.org/1999/02/22-rdf-syntax-ns#"
   xmlns:svg="http://www.w3.org/2000/svg"
   xmlns="http://www.w3.org/2000/svg"
   xmlns:xlink="http://www.w3.org/1999/xlink"
   xmlns:sodipodi="http://sodipodi.sourceforge.net/DTD/sodipodi-0.dtd"
   xmlns:inkscape="http://www.inkscape.org/namespaces/inkscape"
   enable-background="new 0 0 128 128"
   height="24"
   viewBox="0 0 24 24"
   width="24"
   version="1.1"
   id="svg3195"
   sodipodi:docname="lc_exporttoepub.svg"
   inkscape:version="0.92.4 (unknown)"
   inkscape:export-filename="/home/rizmut/Dokumen/Rizmut/Github/libreoffice-style-karasa-jaga/build/next/cmd/lc_exporttoepub.png"
   inkscape:export-xdpi="96"
   inkscape:export-ydpi="96">
  <metadata
     id="metadata3201">
    <rdf:RDF>
      <cc:Work
         rdf:about="">
        <dc:format>image/svg+xml</dc:format>
        <dc:type
           rdf:resource="http://purl.org/dc/dcmitype/StillImage" />
        <dc:title></dc:title>
      </cc:Work>
    </rdf:RDF>
  </metadata>
  <defs
     id="defs3199">
    <linearGradient
       id="linearGradient6111">
      <stop
         style="stop-color:#9c0f0f;stop-opacity:1;"
         offset="0"
         id="stop6113" />
      <stop
         id="stop7088"
         offset="0.5"
         style="stop-color:#e81919;stop-opacity:1;" />
      <stop
         style="stop-color:#cd1313;stop-opacity:1;"
         offset="1"
         id="stop6115" />
    </linearGradient>
    <linearGradient
       id="h-3"
       gradientUnits="userSpaceOnUse"
       x1="61"
       x2="105"
       y1="44"
       y2="72">
      <stop
         offset="0"
         stop-color="#382a23"
         id="stop57-3" />
      <stop
         offset="1"
         stop-color="#753919"
         stop-opacity="0"
         id="stop59" />
    </linearGradient>
    <filter
       id="i-6">
      <feGaussianBlur
         stdDeviation="1.5750545"
         id="feGaussianBlur62" />
    </filter>
    <radialGradient
       id="j-7"
       cx="59.940041"
       cy="56.035801"
       fx="59.940041"
       fy="56.035801"
       gradientTransform="matrix(1,0,0,1.8330946,0,-46.683121)"
       gradientUnits="userSpaceOnUse"
       r="24.090857"
       xlink:href="#k" />
    <radialGradient
       id="k"
       cx="48"
       cy="-0.2148"
       gradientTransform="matrix(0.9792,0,0,0.9725,133.0002,20.8762)"
       gradientUnits="userSpaceOnUse"
       r="55.147999">
      <stop
         offset="0"
         stop-color="#fff718"
         id="stop66" />
      <stop
         offset="1"
         stop-color="#e77100"
         id="stop68" />
    </radialGradient>
    <radialGradient
       id="l"
       cx="92.609375"
       cy="2.384881"
       gradientTransform="matrix(3.49562,-2.4342373,0.6597955,0.94748129,-257.69134,225.62669)"
       gradientUnits="userSpaceOnUse"
       r="1.515625"
       xlink:href="#linearGradient3272" />
    <linearGradient
       id="linearGradient3272"
       inkscape:collect="always">
      <stop
         id="stop3274"
         offset="0"
         style="stop-color:white;stop-opacity:1;" />
      <stop
         id="stop3276"
         offset="1"
         style="stop-color:white;stop-opacity:0;" />
    </linearGradient>
    <filter
       id="o"
       height="1.295681"
       width="1.2651989"
       x="-0.132599"
       y="-0.14784101">
      <feGaussianBlur
         stdDeviation=".16747573"
         id="feGaussianBlur78" />
    </filter>
    <linearGradient
       id="p"
       gradientUnits="userSpaceOnUse"
       x1="37.013638"
       x2="82.901695"
       y1="55.986382"
       y2="55.986382">
      <stop
         offset="0"
         stop-color="#753919"
         id="stop81" />
      <stop
         offset="1"
         stop-color="#753919"
         stop-opacity="0"
         id="stop83-6" />
    </linearGradient>
    <radialGradient
       id="q"
       cx="92.504089"
       cy="1.991497"
       gradientTransform="matrix(1.6002822,-3.1923724,1.0321559,0.51740226,-58.053329,296.8628)"
       gradientUnits="userSpaceOnUse"
       r="1.515625"
       xlink:href="#r" />
    <linearGradient
       id="r">
      <stop
         offset="0"
         stop-color="#fdff63"
         id="stop87-7" />
      <stop
         offset="1"
         stop-color="#fff"
         stop-opacity="0"
         id="stop89-5" />
    </linearGradient>
    <filter
       id="filter1132"
       height="1.295681"
       width="1.2651989"
       x="-0.132599"
       y="-0.14784101">
      <feGaussianBlur
         stdDeviation=".16747573"
         id="feGaussianBlur1130" />
    </filter>
    <radialGradient
       id="s"
       cx="92.609375"
       cy="2.384881"
       gradientTransform="matrix(3.49562,-2.4342373,0.6597955,0.94748129,-265.30336,257.27635)"
       gradientUnits="userSpaceOnUse"
       r="1.515625"
       xlink:href="#linearGradient3272" />
    <filter
       id="filter1143"
       height="1.295681"
       width="1.2651989"
       x="-0.132599"
       y="-0.14784101">
      <feGaussianBlur
         stdDeviation=".16747573"
         id="feGaussianBlur1141" />
    </filter>
    <radialGradient
       id="t"
       cx="47.98196"
       cy="64.88855"
       fx="45.620869"
       fy="43.625381"
       gradientTransform="matrix(0.25568275,0.1196198,-0.40782751,0.87171573,60.011076,12.507468)"
       gradientUnits="userSpaceOnUse"
       r="22.407845">
      <stop
         offset="0"
         stop-color="#31170a"
         id="stop93-3" />
      <stop
         offset="1"
         stop-color="#542912"
         stop-opacity="0"
         id="stop95-5" />
    </radialGradient>
    <radialGradient
       id="u"
       cx="77"
       cy="40.033596"
       gradientTransform="matrix(1.8469014,0,0,3.7015753,-79.21141,-136.18737)"
       gradientUnits="userSpaceOnUse"
       r="19.958006">
      <stop
         offset="0"
         stop-color="#ffea00"
         id="stop98" />
      <stop
         offset="1"
         stop-color="#fc0"
         id="stop100" />
    </radialGradient>
    <radialGradient
       id="v"
       cx="92.609375"
       cy="2.384881"
       gradientTransform="matrix(3.49562,-2.4342373,0.6597955,0.94748129,-232.69134,225.62669)"
       gradientUnits="userSpaceOnUse"
       r="1.515625"
       xlink:href="#r" />
    <filter
       id="filter1160"
       height="1.295681"
       width="1.2651989"
       x="-0.132599"
       y="-0.14784101">
      <feGaussianBlur
         stdDeviation=".16747573"
         id="feGaussianBlur1158" />
    </filter>
    <radialGradient
       id="w"
       cx="77"
       cy="43.275459"
       gradientTransform="matrix(1.8469014,0,0,3.7015753,-79.21141,-136.18737)"
       gradientUnits="userSpaceOnUse"
       r="19.958006">
      <stop
         offset="0"
         stop-color="#ffea00"
         id="stop104" />
      <stop
         offset="1"
         stop-color="#dea200"
         id="stop106" />
    </radialGradient>
    <radialGradient
       id="x"
       cx="54.0625"
       cy="56"
       fx="59.98452"
       fy="46.739941"
       gradientTransform="matrix(1.631111,0.28444492,-0.80286938,4.6039467,-3.158749,-229.19883)"
       gradientUnits="userSpaceOnUse"
       r="14.0625"
       xlink:href="#k" />
    <radialGradient
       id="radialGradient1170"
       cx="48"
       cy="-0.2148"
       gradientTransform="matrix(0.9792,0,0,0.9725,133.0002,20.8762)"
       gradientUnits="userSpaceOnUse"
       r="55.147999">
      <stop
         offset="0"
         stop-color="#fff718"
         id="stop1166" />
      <stop
         offset="1"
         stop-color="#e77100"
         id="stop1168" />
    </radialGradient>
    <linearGradient
       id="y"
       gradientUnits="userSpaceOnUse"
       x1="43"
       x2="47.244663"
       y1="76"
       y2="46.741943">
      <stop
         offset="0"
         stop-color="#fffccf"
         id="stop110" />
      <stop
         offset="1"
         stop-color="#fff"
         stop-opacity="0"
         id="stop112" />
    </linearGradient>
    <linearGradient
       id="z"
       gradientUnits="userSpaceOnUse"
       x1="40.371117"
       x2="48.230423"
       y1="31.368244"
       y2="2.0369141">
      <stop
         offset="0"
         stop-color="#fff"
         stop-opacity="0"
         id="stop115" />
      <stop
         offset=".5"
         stop-color="#fff"
         stop-opacity=".18705"
         id="stop117" />
      <stop
         offset="1"
         stop-color="#fff"
         id="stop119" />
    </linearGradient>
    <linearGradient
       id="A"
       gradientUnits="userSpaceOnUse"
       x1="47.299999"
       x2="39.374374"
       xlink:href="#linearGradient3272"
       y1="44"
       y2="30.272415" />
    <linearGradient
       id="B"
       gradientUnits="userSpaceOnUse"
       x1="30.450985"
       x2="41.028702"
       y1="79.965019"
       y2="40.488441">
      <stop
         offset="0"
         stop-color="#ffeb4a"
         id="stop123" />
      <stop
         offset="1"
         stop-color="#ffeb4a"
         stop-opacity="0"
         id="stop125" />
    </linearGradient>
    <filter
       id="C">
      <feGaussianBlur
         stdDeviation=".43658741"
         id="feGaussianBlur128" />
    </filter>
    <radialGradient
       id="D"
       cx="67.273438"
       cy="2.3514791"
       gradientTransform="matrix(2.1582105,2.7612836,-0.9564263,0.74753972,-100.66778,-185.24544)"
       gradientUnits="userSpaceOnUse"
       r="1.351563"
       xlink:href="#linearGradient3272" />
    <filter
       id="E"
       height="1.284083"
       width="1.324416"
       x="-0.16220801"
       y="-0.142041">
      <feGaussianBlur
         stdDeviation=".17107863"
         id="feGaussianBlur132" />
    </filter>
    <linearGradient
       id="linearGradient6111-6">
      <stop
         style="stop-color:#a4ca51;stop-opacity:1"
         offset="0"
         id="stop6113-7" />
      <stop
         id="stop7088-5"
         offset="0.5"
         style="stop-color:#93c131;stop-opacity:1" />
      <stop
         style="stop-color:#8ebd27;stop-opacity:1"
         offset="1"
         id="stop6115-3" />
    </linearGradient>
    <linearGradient
       inkscape:collect="always"
       xlink:href="#linearGradient6111-6"
       id="linearGradient1248-3"
       x1="11.433537"
       y1="66.573135"
       x2="139.6344"
       y2="139.6362"
       gradientUnits="userSpaceOnUse"
       gradientTransform="matrix(0.84027776,0,0,0.84027776,17.489019,16.73826)" />
    <filter
       inkscape:collect="always"
       style="color-interpolation-filters:sRGB"
       id="filter1091"
       x="-0.063384076"
       width="1.1267682"
       y="-0.05481344"
       height="1.1096269">
      <feGaussianBlur
         inkscape:collect="always"
         stdDeviation="2.792426"
         id="feGaussianBlur1093" />
    </filter>
  </defs>
  <sodipodi:namedview
     pagecolor="#ffffff"
     bordercolor="#666666"
     borderopacity="1"
     objecttolerance="10"
     gridtolerance="10"
     guidetolerance="10"
     inkscape:pageopacity="0"
     inkscape:pageshadow="2"
     inkscape:window-width="1366"
     inkscape:window-height="714"
     id="namedview3197"
     showgrid="true"
     inkscape:zoom="7.2922362"
     inkscape:cx="21.287495"
     inkscape:cy="-1.2952463"
     inkscape:window-x="0"
     inkscape:window-y="28"
     inkscape:window-maximized="1"
     inkscape:current-layer="g182"
     inkscape:snap-global="true"
     showguides="false">
    <inkscape:grid
       type="xygrid"
       id="grid3203"
       spacingx="0.5"
       spacingy="0.5" />
  </sodipodi:namedview>
  <linearGradient
     id="a"
     gradientUnits="userSpaceOnUse"
     x1="88.591797"
     x2="71.262016"
     y1="96.592697"
     y2="79.262917">
    <stop
       offset="0"
       stop-color="#fff"
       id="stop3097" />
    <stop
       offset="1"
       stop-color="#555753"
       id="stop3099" />
  </linearGradient>
  <linearGradient
     id="b"
     gradientUnits="userSpaceOnUse"
     x1="85.219681"
     x2="61.336319"
     y1="93.219681"
     y2="69.336319">
    <stop
       offset="0"
       id="stop3102" />
    <stop
       offset="1"
       stop-color="#393b38"
       id="stop3104" />
  </linearGradient>
  <linearGradient
     id="c"
     gradientUnits="userSpaceOnUse"
     x1="96"
     x2="88.000198"
     y1="104"
     y2="96.000198">
    <stop
       offset="0"
       stop-color="#888a85"
       id="stop3107" />
    <stop
       offset=".0072"
       stop-color="#8c8e89"
       id="stop3109" />
    <stop
       offset=".0673"
       stop-color="#abaca9"
       id="stop3111" />
    <stop
       offset=".1347"
       stop-color="#c5c6c4"
       id="stop3113" />
    <stop
       offset=".2115"
       stop-color="#dbdbda"
       id="stop3115" />
    <stop
       offset=".3012"
       stop-color="#ebebeb"
       id="stop3117" />
    <stop
       offset=".4122"
       stop-color="#f7f7f6"
       id="stop3119" />
    <stop
       offset=".5679"
       stop-color="#fdfdfd"
       id="stop3121" />
    <stop
       offset="1"
       stop-color="#fff"
       id="stop3123" />
  </linearGradient>
  <radialGradient
     id="d"
     cx="102"
     cy="112.3047"
     gradientTransform="matrix(0.94807,0,0,0.9510679,3.32352,5.274458)"
     gradientUnits="userSpaceOnUse"
     r="139.55859">
    <stop
       offset="0"
       stop-color="#535557"
       id="stop3126" />
    <stop
       offset=".11366145"
       stop-color="#898a8c"
       id="stop3128" />
    <stop
       offset=".20296688"
       stop-color="#ececec"
       id="stop3130" />
    <stop
       offset=".2363"
       stop-color="#fafafa"
       id="stop3132" />
    <stop
       offset=".2722"
       stop-color="#fff"
       id="stop3134" />
    <stop
       offset=".5313"
       stop-color="#fafafa"
       id="stop3136" />
    <stop
       offset=".8449"
       stop-color="#ebecec"
       id="stop3138" />
    <stop
       offset="1"
       stop-color="#e1e2e3"
       id="stop3140" />
  </radialGradient>
  <radialGradient
     id="e"
     cx="100.80984"
     cy="112.93461"
     gradientUnits="userSpaceOnUse"
     r="135.18756">
    <stop
       offset="0"
       stop-color="#3e3e3e"
       id="stop3143" />
    <stop
       offset=".0151"
       stop-color="#505050"
       id="stop3145" />
    <stop
       offset=".0558"
       stop-color="#7e7e7e"
       id="stop3147" />
    <stop
       offset=".1357"
       stop-color="#c6c6c6"
       id="stop3149" />
    <stop
       offset=".20990001"
       stop-color="#f1f1f1"
       id="stop3151" />
    <stop
       offset=".24349999"
       stop-color="#fcfcfc"
       id="stop3153" />
    <stop
       offset=".2722"
       stop-color="#fff"
       id="stop3155" />
  </radialGradient>
  <filter
     id="f">
    <feGaussianBlur
       stdDeviation="1.0394514"
       id="feGaussianBlur3158" />
  </filter>
  <filter
     id="g">
    <feGaussianBlur
       stdDeviation=".50063244"
       id="feGaussianBlur3161" />
  </filter>
  <filter
     id="h">
    <feGaussianBlur
       stdDeviation=".40750996"
       id="feGaussianBlur3164" />
  </filter>
  <filter
     id="i">
    <feGaussianBlur
       stdDeviation=".4901192"
       id="feGaussianBlur3167" />
  </filter>
  <filter
     id="j">
    <feGaussianBlur
       stdDeviation=".90565481"
       id="feGaussianBlur3170" />
  </filter>
  <g
     id="g3216"
     transform="matrix(1.0909091,0,0,1.0909091,-8.412198,-111.36259)">
    <g
       id="g182"
       transform="matrix(0.1875,0,0,0.1875,6.265335,100.81691)">
      <g
         id="g889">
        <g
           id="g650">
          <path
             sodipodi:nodetypes="cccccccc"
             transform="matrix(0.92495507,0,0,0.91966966,0.66107428,7.3641784)"
             style="opacity:0.68000034;fill:#3e5300;fill-opacity:1;filter:url(#filter1091)"
             d="M 18.193185,4.6471269 V 126.91317 h 66.498509 c 0.53,0 1.039,-0.211 1.414,-0.586 L 123.34072,89.094563 c 0.375,-0.375 0.586,-0.884 0.586,-1.414 l -0.0228,-83.0334361 z"
             id="path4253"
             inkscape:connector-curvature="0" />
          <path
             sodipodi:nodetypes="cccccccc"
             style="opacity:0.89589;filter:url(#g)"
             inkscape:connector-curvature="0"
             d="m 29.750812,15.546194 -1.1e-5,102.331376 53.830924,-1e-4 c 0.53,0 1.039,-0.211 1.414,-0.586 L 116.494,88.511156 c 0.375,-0.375 0.586,-0.884 0.586,-1.414 l 0.0812,-71.550962 z"
             transform="matrix(1.0090419,0,0,1.003276,-7.641977,0.929762)"
             id="path3177" />
          <path
             sodipodi:nodetypes="ccsccccc"
             inkscape:connector-curvature="0"
             style="fill:#cde2a2;fill-opacity:1"
             d="M 22.377839,16.526886 V 119.19349 h 54.36722 c 0.513401,0 1.006458,-0.20439 1.369714,-0.56765 L 109.929,89.821411 c 0.36326,-0.363255 0.56764,-0.856313 0.56764,-1.369714 l 0.0819,-71.924811 z"
             id="path3181" />
          <path
             inkscape:connector-curvature="0"
             sodipodi:nodetypes="ccccccccccccc"
             id="path59-5"
             d="m 27.893008,21.458161 c -0.43895,0 -0.796642,0.358823 -0.796642,0.799162 l 0.270505,91.063947 c 0,0.44114 0.357693,0.79917 0.796643,0.79917 H 81.71909 c 0.209516,0 0.415049,-0.0847 0.563224,-0.23416 L 105.40948,91.012517 c 0.14897,-0.149444 0.23341,-0.354826 0.23341,-0.565007 l -0.16806,-68.171766 c 0,-0.440338 -0.35689,-0.799162 -0.79663,-0.799162 l -38.300353,-0.06078 -38.484839,0.04236 z"
             style="fill:url(#linearGradient1248-3);fill-opacity:1;stroke-width:0.84027779" />
          <path
             id="path84"
             d="M 66.377394,87.626506 44.976384,65.625616 66.377394,43.62779 73.511645,50.960059 59.243143,65.625616 66.376965,72.959198 87.777982,50.961444 69.135197,31.797567 c -1.522333,-1.566154 -3.991544,-1.566154 -5.515166,0 L 33.467412,62.79298 c -1.522324,1.564841 -1.522324,4.103057 0,5.669285 l 30.153056,30.994466 c 1.523623,1.566149 3.992835,1.566149 5.515159,0 L 99.288683,68.462265 c 1.522317,-1.566228 1.522317,-4.104444 0,-5.669285 l -4.377325,-4.498391 z"
             style="fill:#ffffff;stroke-width:6.90499163"
             inkscape:connector-curvature="0" />
        </g>
        <g
           id="g3193"
           transform="matrix(1.1080161,0,0,1.1080161,-12.744784,-10.01667)">
          <path
             id="path3185"
             d="m 111.52523,88.365747 c 0.26305,-0.236238 -24.821717,-1.141063 -29.856717,-1.141063 -1.654,0 -3,1.346 -3,3 0,5.035 1.211722,26.561276 1.474766,26.325036 z"
             style="opacity:0.75068497;fill:url(#a);filter:url(#h)"
             inkscape:connector-curvature="0"
             sodipodi:nodetypes="sssss" />
          <path
             id="path3187"
             d="m 111.52523,88.365747 c 0.39457,-0.354357 -20.412717,-0.141063 -29.856717,-0.141063 -1.103,0 -2,0.897 -2,2 0,9.444 0.0802,26.679386 0.474766,26.325036 z"
             inkscape:connector-curvature="0"
             style="opacity:0.2;filter:url(#j)"
             sodipodi:nodetypes="sssss" />
          <path
             id="path3189"
             d="m 111.52523,88.365747 c 0.25147,-0.225842 -20.049717,0.858937 -29.856717,0.858937 -0.553,0 -1,0.447 -1,1 0,9.806996 -0.776705,26.550876 -0.525234,26.325036 z"
             style="opacity:0.1;fill:url(#b);filter:url(#i)"
             inkscape:connector-curvature="0"
             sodipodi:nodetypes="sssss" />
          <path
             id="path3191"
             d="M 81.278898,116.44678 111.33835,89.585303 81.390132,90.03024 Z"
             style="fill:url(#c)"
             inkscape:connector-curvature="0"
             sodipodi:nodetypes="cccc" />
        </g>
      </g>
    </g>
  </g>
</svg>
